Adwaita++-Dark/actions/22/mail-message-new.svg

<svg xmlns="http://www.w3.org/2000/svg" width="22" height="22" viewBox="0 0 22 22">
 <defs>
  <style id="current-color-scheme" type="text/css">
   .ColorScheme-Text { color:#E6DDFF; } .ColorScheme-Highlight { color:#4285f4; }
  </style>
 </defs>
 <path style="fill:currentColor" class="ColorScheme-Text" d="M 2 2 C 0.892 2 0 2.892 0 4 L 0 12 C 0 13.108 0.892 14 2 14 L 14 14 C 15.108 14 16 13.108 16 12 L 16 4 C 16 2.892 15.108 2 14 2 L 2 2 z M 7 4.9960938 L 9 4.9960938 L 9 6.9960938 L 11 6.9960938 L 11 8.9960938 L 9 8.9960938 L 9 10.996094 L 7 10.996094 L 7 8.9960938 L 5 8.9960938 L 5 6.9960938 L 7 6.9960938 L 7 4.9960938 z" transform="translate(3 3)"/>
</svg>

<svg height="22" viewBox="0 0 22 22" width="22" xmlns="http://www.w3.org/2000/svg">
  <path d="m2 2c-1.108 0-2 .892-2 2v8c0 1.108.892 2 2 2h12c1.108 0 2-.892 2-2v-8c0-1.108-.892-2-2-2zm5 2.9960938h2v2h2v2h-2v2.0000002h-2v-2.0000002h-2v-2h2z" fill="#e6ddff" transform="translate(3 3)"/>
</svg>
